src/static/logos/mapzen.svg

<?xml version="1.0" encoding="UTF-8" standalone="no"?>
<svg width="256px" height="256px" viewBox="0 0 256 256" version="1.1" xmlns="http://www.w3.org/2000/svg" xmlns:xlink="http://www.w3.org/1999/xlink" preserveAspectRatio="xMidYMid">
	<g>
		<path d="M130.033,188.733 L220.137,219.69 L217.734,128.578 L219.538,40.774 L129.338,69.035 L36.411,40.172 L38.216,127.676 L36.108,219.387 L130.033,188.733" fill="#E7ECD3"></path>
		<path d="M119.098,45.637 L48.889,23.564 C48.509,23.444 48.082,23.515 47.758,23.758 C47.433,24.001 47.247,24.385 47.258,24.79 L47.635,42.323 L36.679,38.752 C36.288,38.625 35.872,38.695 35.541,38.938 C35.217,39.182 35.026,39.565 35.037,39.974 L36.925,127.292 C36.94,127.975 37.5,128.518 38.18,128.518 L38.208,128.518 C38.903,128.504 39.452,127.929 39.435,127.235 L37.585,41.69 L47.693,44.984 L49.379,123.186 C49.393,123.87 49.953,124.413 50.633,124.413 L50.662,124.413 C51.356,124.399 51.905,123.824 51.888,123.13 L50.222,45.809 L112.11,65.977 C112.748,66.185 113.478,65.832 113.693,65.17 C113.907,64.511 113.548,63.802 112.886,63.588 L50.164,43.147 L49.805,26.485 L118.344,48.033 C119.031,48.248 119.715,47.871 119.919,47.212 C120.127,46.55 119.761,45.845 119.098,45.637 Z M220.803,38.938 C220.475,38.699 220.052,38.628 219.665,38.752 L208.709,42.323 L209.087,24.79 C209.097,24.385 208.91,24.001 208.586,23.758 C208.265,23.515 207.843,23.444 207.455,23.564 L137.246,45.637 C136.583,45.845 136.217,46.55 136.425,47.212 C136.633,47.871 137.327,48.245 138,48.033 L206.538,26.485 L206.179,43.147 L143.458,63.588 C142.796,63.802 142.436,64.511 142.651,65.17 C142.866,65.832 143.589,66.188 144.234,65.977 L206.122,45.809 L204.456,123.13 C204.438,123.824 204.988,124.399 205.682,124.413 L205.71,124.413 C206.391,124.413 206.951,123.87 206.965,123.186 L208.651,44.984 L218.759,41.69 L216.909,127.235 C216.892,127.929 217.441,128.504 218.136,128.518 L218.164,128.518 C218.844,128.518 219.405,127.975 219.419,127.292 L221.307,39.974 C221.317,39.565 221.127,39.182 220.803,38.938 Z M118.344,211.554 L49.805,233.102 L50.164,216.444 L112.886,196.003 C113.548,195.788 113.907,195.08 113.693,194.421 C113.478,193.758 112.752,193.403 112.11,193.614 L50.222,213.782 L51.888,136.461 C51.905,135.767 51.356,135.192 50.662,135.178 L50.633,135.178 C49.953,135.178 49.393,135.721 49.379,136.405 L47.693,214.606 L37.585,217.9 L39.435,132.355 C39.452,131.661 38.903,131.087 38.208,131.073 L38.18,131.069 C37.5,131.069 36.94,131.616 36.925,132.299 L35.037,219.616 C35.026,220.025 35.217,220.409 35.541,220.652 C35.763,220.814 36.023,220.902 36.292,220.902 C36.422,220.902 36.552,220.881 36.679,220.839 L47.635,217.268 L47.258,234.797 C47.247,235.202 47.433,235.586 47.758,235.83 C47.976,235.995 48.244,236.083 48.512,236.083 C48.639,236.083 48.766,236.062 48.889,236.023 L119.098,213.95 C119.761,213.742 120.127,213.037 119.919,212.375 C119.711,211.716 119.028,211.346 118.344,211.554 Z M219.419,132.299 C219.405,131.616 218.844,131.069 218.164,131.069 L218.136,131.073 C217.441,131.087 216.892,131.661 216.909,132.355 L218.759,217.9 L208.651,214.606 L206.965,136.405 C206.951,135.721 206.391,135.178 205.71,135.178 L205.682,135.178 C204.988,135.192 204.438,135.767 204.456,136.461 L206.122,213.782 L144.234,193.614 C143.585,193.399 142.866,193.758 142.651,194.421 C142.436,195.08 142.796,195.788 143.458,196.003 L206.179,216.444 L206.538,233.102 L138,211.554 C137.33,211.349 136.633,211.716 136.425,212.375 C136.217,213.037 136.583,213.742 137.246,213.95 L207.455,236.023 C207.578,236.062 207.705,236.083 207.832,236.083 C208.1,236.083 208.368,235.995 208.586,235.83 C208.91,235.586 209.097,235.202 209.087,234.797 L208.709,217.268 L219.665,220.839 C219.792,220.881 219.922,220.902 220.052,220.902 C220.321,220.902 220.581,220.814 220.803,220.652 C221.127,220.409 221.317,220.025 221.307,219.616 L219.419,132.299 Z" fill="#6EA1A5"></path>
		<path d="M99.824,156.208 C66.417,146.919 33.286,137.708 0.141,128.49 C0.099,128.194 0.042,127.891 0,127.588 C33.195,118.165 66.502,109.144 99.816,99.764 C109.077,66.407 118.303,33.202 127.528,0.01 C127.845,0 128.176,0 128.5,0 C137.719,33.184 146.944,66.375 156.226,99.792 C189.491,109.027 222.714,118.264 255.937,127.5 C255.951,127.813 255.979,128.127 256,128.451 C222.841,137.676 189.675,146.902 156.212,156.208 C146.986,189.41 137.747,222.64 128.514,255.87 C128.197,255.901 127.887,255.951 127.563,255.99 C118.345,222.837 109.126,189.685 99.824,156.208" fill="#D5645C"></path>
		<path d="M65.0100021,193.219 C65.0920021,193.297 104.458002,172.888 104.458002,172.888 L102.557583,153.672405 L84.5430021,151.96 C84.5430021,151.96 66.0990021,190.925 65.0100021,193.219 Z M151.331002,82.175 L153.876004,102.476128 L171.858002,104.133 L192.119002,60.896 L151.331002,82.175 Z" fill="#5D7D6D"></path>
		<path d="M151.338003,82.175 C136.954003,89.749 122.570003,97.319 108.185003,104.87 C106.969003,105.514 106.165003,106.314 105.563003,107.576 C98.5710031,122.367 91.5630031,137.163 84.5500031,151.96 C89.6370031,153.374 94.7300031,154.79 99.8300031,156.208 C101.377003,161.776 102.922003,167.337 104.465003,172.888 C119.459003,164.993 134.452003,157.101 149.445003,149.214 C150.439003,148.688 151.087003,148.019 151.567003,147.004 C158.328003,132.71 165.097003,118.42 171.865003,104.133 C166.655003,102.686 161.444003,101.239 156.232003,99.792 C154.599003,93.914 152.968003,88.04 151.338003,82.175" fill="#563530"></path>
		<path d="M128.244227,113.855 C124.534227,113.855 121.045227,115.304 118.423227,117.943 C115.823227,120.565 114.399227,124.05 114.420227,127.739 C114.438227,131.428 115.893227,134.893 118.515227,137.49 C121.123227,140.076 124.569227,141.507 128.244227,141.507 C131.955227,141.507 135.443227,140.055 138.065227,137.409 C140.666227,134.787 142.086227,131.312 142.068227,127.62 C142.061227,123.934 140.606227,120.463 137.980227,117.858 C135.373227,115.276 131.912227,113.855 128.244227,113.855" fill="#E7ECD3"></path>
	</g>
</svg>

<svg width="256" height="256" xmlns="http://www.w3.org/2000/svg" preserveAspectRatio="xMidYMid"><path d="M130.033 188.733l90.104 30.957-2.403-91.112 1.804-87.804-90.2 28.261-92.927-28.863 1.805 87.504-2.108 91.711 93.925-30.654" fill="#E7ECD3"/><path d="M119.098 45.637L48.889 23.564a1.264 1.264 0 00-1.131.194 1.245 1.245 0 00-.5 1.032l.377 17.533-10.956-3.571a1.253 1.253 0 00-1.642 1.222l1.888 87.318a1.255 1.255 0 001.255 1.226h.028a1.252 1.252 0 001.227-1.283l-1.85-85.545 10.108 3.294 1.686 78.202a1.254 1.254 0 001.254 1.227h.029a1.251 1.251 0 001.226-1.283l-1.666-77.321 61.888 20.168a1.27 1.27 0 001.583-.807 1.254 1.254 0 00-.807-1.582L50.164 43.147l-.359-16.662 68.539 21.548a1.24 1.24 0 001.575-.821 1.255 1.255 0 00-.821-1.575zm101.705-6.699a1.274 1.274 0 00-1.138-.186l-10.956 3.571.378-17.533a1.258 1.258 0 00-1.632-1.226l-70.209 22.073a1.255 1.255 0 00-.821 1.575 1.25 1.25 0 001.575.821l68.538-21.548-.359 16.662-62.721 20.441a1.253 1.253 0 00-.807 1.582 1.264 1.264 0 001.583.807l61.888-20.168-1.666 77.321a1.25 1.25 0 001.226 1.283h.028c.681 0 1.241-.543 1.255-1.227l1.686-78.202 10.108-3.294-1.85 85.545a1.252 1.252 0 001.227 1.283h.028c.68 0 1.241-.543 1.255-1.226l1.888-87.318c.01-.409-.18-.792-.504-1.036zM118.344 211.554l-68.539 21.548.359-16.658 62.722-20.441a1.255 1.255 0 00.807-1.582 1.264 1.264 0 00-1.583-.807l-61.888 20.168 1.666-77.321a1.251 1.251 0 00-1.226-1.283h-.029c-.68 0-1.24.543-1.254 1.227l-1.686 78.201-10.108 3.294 1.85-85.545a1.25 1.25 0 00-1.227-1.282l-.028-.004c-.68 0-1.24.547-1.255 1.23l-1.888 87.317a1.254 1.254 0 001.642 1.223l10.956-3.571-.377 17.529a1.256 1.256 0 001.254 1.286c.127 0 .254-.021.377-.06l70.209-22.073a1.255 1.255 0 00.821-1.575 1.249 1.249 0 00-1.575-.821zm101.075-79.255a1.258 1.258 0 00-1.255-1.23l-.028.004a1.25 1.25 0 00-1.227 1.282l1.85 85.545-10.108-3.294-1.686-78.201a1.254 1.254 0 00-1.255-1.227h-.028a1.25 1.25 0 00-1.226 1.283l1.666 77.321-61.888-20.168a1.258 1.258 0 00-1.583.807 1.254 1.254 0 00.807 1.582l62.721 20.441.359 16.658L138 211.554a1.257 1.257 0 00-.754 2.396l70.209 22.073c.123.039.25.06.377.06a1.256 1.256 0 001.255-1.286l-.378-17.529 10.956 3.571c.127.042.257.063.387.063a1.256 1.256 0 001.255-1.286l-1.888-87.317z" fill="#6EA1A5"/><path d="M99.824 156.208c-33.407-9.289-66.538-18.5-99.683-27.718-.042-.296-.099-.599-.141-.902 33.195-9.423 66.502-18.444 99.816-27.824 9.261-33.357 18.487-66.562 27.712-99.754.317-.01.648-.01.972-.01 9.219 33.184 18.444 66.375 27.726 99.792 33.265 9.235 66.488 18.472 99.711 27.708.014.313.042.627.063.951-33.159 9.225-66.325 18.451-99.788 27.757-9.226 33.202-18.465 66.432-27.698 99.662-.317.031-.627.081-.951.12-9.218-33.153-18.437-66.305-27.739-99.782" fill="#D5645C"/><path d="M65.01 193.219c.082.078 39.448-20.331 39.448-20.331l-1.9-19.216-18.015-1.712s-18.444 38.965-19.533 41.259zm86.321-111.044l2.545 20.301 17.982 1.657 20.261-43.237-40.788 21.279z" fill="#5D7D6D"/><path d="M151.338 82.175a38056.771 38056.771 0 01-43.153 22.695c-1.216.644-2.02 1.444-2.622 2.706-6.992 14.791-14 29.587-21.013 44.384l15.28 4.248 4.635 16.68c14.994-7.895 29.987-15.787 44.98-23.674.994-.526 1.642-1.195 2.122-2.21a80450.85 80450.85 0 0120.298-42.871l-15.633-4.341-4.894-17.617" fill="#563530"/><path d="M128.244 113.855a13.75 13.75 0 00-9.82 4.088 13.722 13.722 0 00-4.004 9.796 13.733 13.733 0 004.095 9.751c2.608 2.586 6.054 4.017 9.73 4.017a13.73 13.73 0 009.82-4.098 13.709 13.709 0 004.003-9.789 13.709 13.709 0 00-4.088-9.762 13.756 13.756 0 00-9.736-4.003" fill="#E7ECD3"/></svg>
